media/imagens/logo.svg

<svg width="161" height="62" viewBox="0 0 161 62" fill="none" xmlns="http://www.w3.org/2000/svg">
<path d="M39.6523 37.6798H0C4.23517 47.4532 16.3589 49.245 24.9921 42.5199H38.4888C36.5574 47.4765 33.0436 50.9205 26.8537 54.2946L30.67 61.6945C69.7639 35.4812 38.8611 -10.9781 0 2.35569L3.8163 10.1279C25.1318 2.79783 43.9573 19.2033 39.6523 37.6798Z" fill="url(#paint0_linear_1_96)"/>
<path d="M0 27.8597C4.39806 17.1322 22.1299 14.9681 27.994 27.8597H0Z" fill="url(#paint1_linear_1_96)"/>
<path d="M63.5135 39.7024C62.8311 39.7024 62.1061 39.6456 61.3385 39.5319C60.5708 39.3897 59.8458 39.1196 59.1635 38.7216C58.4811 38.3235 57.9267 37.7265 57.5002 36.9304C57.0737 36.1059 56.8605 34.997 56.8605 33.6039V14.4552C56.8605 13.2327 57.0311 12.2234 57.3723 11.4273C57.7419 10.6028 58.2252 9.96306 58.8223 9.50815C59.4193 9.02482 60.0875 8.68364 60.8267 8.48462C61.5659 8.25716 62.3051 8.14344 63.0444 8.14344C64.8071 8.17187 66.4419 8.21452 67.9488 8.27138C69.4557 8.29981 70.8773 8.34246 72.2135 8.39932C73.5783 8.42775 74.9003 8.4704 76.1797 8.52726V11.2567H63.8973C62.7885 11.2567 61.9071 11.5552 61.2532 12.1523C60.5993 12.7493 60.2723 13.7018 60.2723 15.0097V22.4303L74.3033 22.6435V25.245L60.2723 25.4582V32.8362C60.2723 33.8882 60.4429 34.6843 60.7841 35.2245C61.1537 35.7647 61.637 36.1201 62.2341 36.2907C62.8311 36.4613 63.4424 36.5465 64.0679 36.5465H76.1797V39.276C74.8719 39.3613 73.493 39.4323 72.0429 39.4892C70.6214 39.5461 69.1856 39.5887 67.7356 39.6172C66.314 39.6456 64.9066 39.674 63.5135 39.7024ZM88.2026 39.5319C86.9801 39.5319 85.8854 39.3471 84.9188 38.9774C83.9805 38.5794 83.2413 37.9255 82.7011 37.0157C82.1609 36.0774 81.8908 34.8122 81.8908 33.2201V8.14344H85.3026V32.7509C85.3026 33.7745 85.4732 34.5563 85.8144 35.0965C86.1555 35.6083 86.6104 35.9637 87.1791 36.1627C87.7477 36.3333 88.3306 36.4186 88.9276 36.4186H100.187V39.5319H88.2026ZM104.589 39.5319V8.14344H108.001V39.5319H104.589ZM121.664 39.5319V11.214H111.983V8.14344H134.756V11.214H125.076V39.5319H121.664ZM144.977 39.7024C144.294 39.7024 143.569 39.6456 142.801 39.5319C142.034 39.3897 141.309 39.1196 140.626 38.7216C139.944 38.3235 139.39 37.7265 138.963 36.9304C138.537 36.1059 138.324 34.997 138.324 33.6039V14.4552C138.324 13.2327 138.494 12.2234 138.835 11.4273C139.205 10.6028 139.688 9.96306 140.285 9.50815C140.882 9.02482 141.551 8.68364 142.29 8.48462C143.029 8.25716 143.768 8.14344 144.507 8.14344C146.27 8.17187 147.905 8.21452 149.412 8.27138C150.919 8.29981 152.34 8.34246 153.677 8.39932C155.041 8.42775 156.363 8.4704 157.643 8.52726V11.2567H145.36C144.252 11.2567 143.37 11.5552 142.716 12.1523C142.062 12.7493 141.735 13.7018 141.735 15.0097V22.4303L155.766 22.6435V25.245L141.735 25.4582V32.8362C141.735 33.8882 141.906 34.6843 142.247 35.2245C142.617 35.7647 143.1 36.1201 143.697 36.2907C144.294 36.4613 144.905 36.5465 145.531 36.5465H157.643V39.276C156.335 39.3613 154.956 39.4323 153.506 39.4892C152.084 39.5461 150.649 39.5887 149.199 39.6172C147.777 39.6456 146.37 39.674 144.977 39.7024Z" fill="white"/>
<path d="M56.8128 56.1627V48.7855C56.8128 48.473 56.858 48.2098 56.9485 47.996C57.0389 47.7739 57.1623 47.6012 57.3186 47.4778C57.4748 47.3462 57.6475 47.2558 57.8367 47.2064C58.0341 47.1489 58.2356 47.1201 58.4412 47.1201C58.8359 47.1283 59.2389 47.1365 59.6502 47.1447C60.0614 47.153 60.4767 47.1612 60.8961 47.1694C61.3156 47.1776 61.7309 47.19 62.1421 47.2064V47.5889H58.5029C58.141 47.5889 57.8531 47.6917 57.6393 47.8973C57.4255 48.0947 57.3186 48.4072 57.3186 48.8348V51.6229L61.6363 51.6722V52.0423L57.3186 52.0793V56.1627H56.8128ZM67.9538 56.1627V47.1201H68.4596V56.1627H67.9538ZM75.0159 56.1627V47.1201H75.4477L80.6907 55.2745V47.1201H81.1965V56.1627H80.7647L75.5217 48.0083V56.1627H75.0159ZM86.8025 56.1627L90.047 47.1201H90.7255L93.97 56.1627H93.4272L92.3539 53.1896H88.4062L87.333 56.1627H86.8025ZM88.5296 52.7332H92.1935L90.3801 47.5889L88.5296 52.7332ZM100.033 56.1627V47.1201H100.464L105.707 55.2745V47.1201H106.213V56.1627H105.782L100.538 48.0083V56.1627H100.033ZM115.249 56.2367C114.69 56.2367 114.208 56.1751 113.805 56.0517C113.411 55.9283 113.086 55.7063 112.831 55.3855C112.584 55.0565 112.399 54.5919 112.276 53.9915C112.161 53.3829 112.103 52.5892 112.103 51.6106C112.103 50.7059 112.161 49.9575 112.276 49.3653C112.399 48.7649 112.588 48.3003 112.843 47.9713C113.106 47.6341 113.444 47.3956 113.855 47.2558C114.266 47.116 114.759 47.0461 115.335 47.0461C115.508 47.0461 115.734 47.0584 116.014 47.0831C116.302 47.1077 116.602 47.1406 116.914 47.1818C117.235 47.2146 117.535 47.2599 117.815 47.3175V47.6752C117.675 47.6505 117.473 47.6259 117.21 47.6012C116.955 47.5765 116.663 47.556 116.334 47.5395C116.005 47.5148 115.681 47.5025 115.36 47.5025C114.866 47.5025 114.443 47.5601 114.089 47.6752C113.736 47.7904 113.448 48.0001 113.226 48.3044C113.012 48.6004 112.856 49.0158 112.757 49.5504C112.658 50.0849 112.609 50.7758 112.609 51.6229C112.609 52.5029 112.658 53.2184 112.757 53.7694C112.856 54.3205 113.012 54.744 113.226 55.0401C113.439 55.328 113.715 55.5253 114.052 55.6323C114.398 55.7309 114.817 55.7803 115.31 55.7803C115.927 55.7803 116.433 55.7638 116.828 55.7309C117.231 55.6898 117.56 55.6487 117.815 55.6076V55.9777C117.543 56.027 117.251 56.0723 116.939 56.1134C116.635 56.1545 116.334 56.1833 116.038 56.1997C115.742 56.2244 115.479 56.2367 115.249 56.2367ZM125.351 56.1997C125.145 56.1997 124.939 56.1833 124.734 56.1504C124.528 56.1175 124.339 56.0476 124.166 55.9407C123.994 55.8337 123.854 55.6734 123.747 55.4595C123.64 55.2375 123.587 54.9455 123.587 54.5836V48.7855C123.587 48.473 123.632 48.2098 123.722 47.996C123.813 47.7739 123.936 47.6012 124.092 47.4778C124.249 47.3462 124.421 47.2558 124.61 47.2064C124.808 47.1489 125.009 47.1201 125.215 47.1201C125.651 47.1283 126.074 47.1365 126.486 47.1447C126.905 47.153 127.316 47.1653 127.719 47.1818C128.122 47.19 128.521 47.1982 128.916 47.2064V47.5889H125.289C124.927 47.5889 124.635 47.6875 124.413 47.8849C124.199 48.0823 124.092 48.399 124.092 48.8348V51.4502L128.41 51.4872V51.8573L124.092 51.9066V54.522C124.092 54.8838 124.154 55.1511 124.277 55.3238C124.401 55.4965 124.561 55.6076 124.759 55.6569C124.964 55.7063 125.174 55.7309 125.388 55.7309H128.916V56.1134C128.529 56.1298 128.135 56.1422 127.732 56.1504C127.337 56.1586 126.938 56.1668 126.535 56.1751C126.14 56.1833 125.745 56.1915 125.351 56.1997ZM135.005 56.1627V47.1201H135.51V56.1627H135.005ZM141.845 56.1627V47.1201H145.299C145.562 47.1201 145.821 47.1489 146.076 47.2064C146.339 47.264 146.578 47.3791 146.792 47.5518C147.014 47.7246 147.191 47.9795 147.322 48.3167C147.462 48.6457 147.532 49.0898 147.532 49.6491C147.532 50.1836 147.47 50.6154 147.347 50.9444C147.223 51.2734 147.063 51.5283 146.866 51.7092C146.677 51.8902 146.471 52.0177 146.249 52.0917C146.035 52.1575 145.829 52.1986 145.632 52.215L147.581 56.1627H147.075L145.151 52.2644C144.995 52.2644 144.797 52.2603 144.559 52.2521C144.32 52.2438 144.065 52.2397 143.794 52.2397C143.522 52.2315 143.259 52.2233 143.004 52.215C142.749 52.2068 142.531 52.1986 142.351 52.1904V56.1627H141.845ZM142.351 51.8326H145.25C145.488 51.8326 145.71 51.8079 145.916 51.7586C146.13 51.701 146.319 51.5982 146.483 51.4502C146.648 51.2939 146.779 51.0719 146.878 50.784C146.977 50.4962 147.026 50.1178 147.026 49.6491C147.026 49.2049 146.973 48.8472 146.866 48.5758C146.767 48.3044 146.635 48.0988 146.471 47.959C146.306 47.8109 146.117 47.7122 145.903 47.6629C145.698 47.6053 145.48 47.5765 145.25 47.5765H142.351V51.8326ZM152.95 56.1627L156.194 47.1201H156.873L160.117 56.1627H159.574L158.501 53.1896H154.554L153.48 56.1627H152.95ZM154.677 52.7332H158.341L156.527 47.5889L154.677 52.7332Z" fill="white"/>
<defs>
<linearGradient id="paint0_linear_1_96" x1="8.50849e-08" y1="54.3023" x2="44.5681" y2="54.3023" gradientUnits="userSpaceOnUse">
<stop stop-color="#A3B43E"/>
<stop offset="1" stop-color="#D7E872"/>
</linearGradient>
<linearGradient id="paint1_linear_1_96" x1="4.88725e-08" y1="26.7962" x2="25.5998" y2="26.7962" gradientUnits="userSpaceOnUse">
<stop stop-color="#A3B43E"/>
<stop offset="1" stop-color="#D7E872"/>
</linearGradient>
</defs>
</svg>

<svg width="161" height="62" fill="none" xmlns="http://www.w3.org/2000/svg"><path d="M39.652 37.68H0c4.235 9.773 16.359 11.565 24.992 4.84H38.49c-1.932 4.956-5.445 8.4-11.635 11.775l3.816 7.4C69.764 35.48 38.861-10.979 0 2.354l3.816 7.773c21.316-7.33 40.141 9.075 35.836 27.552Z" fill="url(#a)"/><path d="M0 27.86c4.398-10.728 22.13-12.892 27.994 0H0Z" fill="url(#b)"/><path d="M63.514 39.702c-.683 0-1.408-.056-2.175-.17a6.713 6.713 0 0 1-2.175-.81c-.683-.398-1.237-.995-1.664-1.792-.426-.824-.64-1.933-.64-3.326V14.455c0-1.222.171-2.232.512-3.028.37-.824.853-1.464 1.45-1.919a5.371 5.371 0 0 1 2.005-1.023 7.505 7.505 0 0 1 2.217-.342c1.763.029 3.398.072 4.905.128 1.507.029 2.928.071 4.264.128 1.365.029 2.687.071 3.967.128v2.73H63.897c-1.108 0-1.99.298-2.644.895-.654.597-.98 1.55-.98 2.858v7.42l14.03.213v2.602l-14.03.213v7.378c0 1.052.17 1.848.511 2.389.37.54.853.895 1.45 1.066.597.17 1.208.256 1.834.256H76.18v2.729c-1.308.085-2.687.156-4.137.213-1.422.057-2.857.1-4.307.128l-4.223.085Zm24.689-.17c-1.223 0-2.318-.185-3.284-.555-.938-.398-1.678-1.051-2.218-1.961-.54-.939-.81-2.204-.81-3.796V8.143h3.412v24.608c0 1.024.17 1.805.511 2.346.342.511.796.867 1.365 1.066.569.17 1.152.256 1.749.256h11.259v3.113H88.203Zm16.386 0V8.143h3.412v31.389h-3.412Zm17.075 0V11.214h-9.681v-3.07h22.773v3.07h-9.68v28.318h-3.412Zm23.313.17c-.683 0-1.408-.056-2.176-.17a6.725 6.725 0 0 1-2.175-.81c-.682-.398-1.236-.995-1.663-1.792-.426-.824-.639-1.933-.639-3.326V14.455c0-1.222.17-2.232.511-3.028.37-.824.853-1.464 1.45-1.919a5.375 5.375 0 0 1 2.005-1.023 7.501 7.501 0 0 1 2.217-.342c1.763.029 3.398.072 4.905.128 1.507.029 2.928.071 4.265.128 1.364.029 2.686.071 3.966.128v2.73H145.36c-1.108 0-1.99.298-2.644.895-.654.597-.981 1.55-.981 2.858v7.42l14.031.213v2.602l-14.031.213v7.378c0 1.052.171 1.848.512 2.389.37.54.853.895 1.45 1.066a6.64 6.64 0 0 0 1.834.256h12.112v2.729c-1.308.085-2.687.156-4.137.213-1.422.057-2.857.1-4.307.128l-4.222.085ZM56.813 56.163v-7.377c0-.313.045-.576.136-.79.09-.222.213-.395.37-.518a1.31 1.31 0 0 1 .518-.272 2.15 2.15 0 0 1 .604-.086 1443.238 1443.238 0 0 0 2.455.05c.42.008.835.02 1.246.036v.383h-3.64c-.361 0-.649.103-.863.308-.214.198-.32.51-.32.938v2.788l4.317.05v.37l-4.317.036v4.084h-.506Zm11.14 0V47.12h.507v9.043h-.506Zm7.063 0V47.12h.432l5.243 8.155V47.12h.505v9.043h-.431l-5.243-8.155v8.155h-.506Zm11.786 0 3.245-9.043h.678l3.245 9.043h-.543l-1.073-2.973h-3.948l-1.073 2.973h-.53Zm1.728-3.43h3.663L90.38 47.59l-1.85 5.144Zm11.503 3.43V47.12h.431l5.243 8.155V47.12h.506v9.043h-.431l-5.244-8.155v8.155h-.505Zm15.216.074c-.559 0-1.041-.062-1.444-.185a1.968 1.968 0 0 1-.974-.666c-.247-.33-.432-.794-.555-1.395-.115-.608-.173-1.402-.173-2.38 0-.905.058-1.653.173-2.246.123-.6.312-1.065.567-1.394a2.122 2.122 0 0 1 1.012-.715c.411-.14.904-.21 1.48-.21.173 0 .399.012.679.037.288.025.588.058.9.099.321.033.621.078.901.136v.357a8.108 8.108 0 0 0-.605-.074 19.141 19.141 0 0 0-.876-.062 12.994 12.994 0 0 0-.974-.037c-.494 0-.917.058-1.271.173a1.696 1.696 0 0 0-.863.63c-.214.295-.37.71-.469 1.245-.099.535-.148 1.226-.148 2.073 0 .88.049 1.595.148 2.146.099.552.255.975.469 1.271.213.288.489.485.826.592.346.099.765.148 1.258.148.617 0 1.123-.016 1.518-.05.403-.04.732-.081.987-.122v.37c-.272.049-.564.094-.876.135-.304.041-.605.07-.901.087a9.601 9.601 0 0 1-.789.037Zm10.102-.037a3.89 3.89 0 0 1-.617-.05 1.527 1.527 0 0 1-.568-.21 1.158 1.158 0 0 1-.419-.48c-.107-.223-.16-.514-.16-.876v-5.799c0-.312.045-.575.135-.789.091-.222.214-.395.37-.518.157-.132.329-.222.518-.272.198-.057.399-.086.605-.086l1.271.025c.419.008.83.02 1.233.037l1.197.024v.383h-3.627c-.362 0-.654.099-.876.296-.214.197-.321.514-.321.95v2.615l4.318.037v.37l-4.318.05v2.615c0 .362.062.63.185.802a.824.824 0 0 0 .482.333c.205.05.415.074.629.074h3.528v.382c-.387.017-.781.03-1.184.037l-1.197.025-1.184.025Zm9.654-.037V47.12h.505v9.043h-.505Zm6.84 0V47.12h3.454c.263 0 .522.029.777.086.263.058.502.173.716.346.222.173.399.428.53.765.14.329.21.773.21 1.332 0 .535-.062.966-.185 1.295-.124.33-.284.584-.481.765a1.64 1.64 0 0 1-.617.383 2.93 2.93 0 0 1-.617.123l1.949 3.948h-.506l-1.924-3.899a17.8 17.8 0 0 1-.592-.012 22.11 22.11 0 0 0-.765-.012l-.79-.025a50.04 50.04 0 0 1-.653-.025v3.973h-.506Zm.506-4.33h2.899c.238 0 .46-.025.666-.074.214-.058.403-.16.567-.309.165-.156.296-.378.395-.666.099-.288.148-.666.148-1.135 0-.444-.053-.802-.16-1.073-.099-.272-.231-.477-.395-.617a1.261 1.261 0 0 0-.568-.296 2.406 2.406 0 0 0-.653-.086h-2.899v4.256Zm10.599 4.33 3.244-9.043h.679l3.244 9.043h-.543l-1.073-2.973h-3.947l-1.074 2.973h-.53Zm1.727-3.43h3.664l-1.814-5.144-1.85 5.144Z" fill="#fff"/><defs><linearGradient id="a" x1="0" y1="54.302" x2="44.568" y2="54.302" gradientUnits="userSpaceOnUse"><stop stop-color="#A3B43E"/><stop offset="1" stop-color="#D7E872"/></linearGradient><linearGradient id="b" x1="0" y1="26.796" x2="25.6" y2="26.796" gradientUnits="userSpaceOnUse"><stop stop-color="#A3B43E"/><stop offset="1" stop-color="#D7E872"/></linearGradient></defs></svg>
